def movement():
  while(True):
    movej([-0.11789355167963866, -1.588593862399164, 1.5883961537162001, 0.00019770868296387079, 1.2353768753398198, 3.141592653589793],a = 0.15,v = 0.15,r = 0.02)
    movej([-0.07608402494581967, -1.5581107360336723, 1.6529792439708864, -0.0942345651956753, 1.4959936873717, 3.143254559259613],a = 0.15,v = 0.15,r = 0.02)
    movej([-0.14170262334223294, -1.5405317404937922, 1.7477245769576744, -0.2604538296579104, 1.2128246480206453, 3.3392410405775492],a = 0.15,v = 0.15,r = 0.02)
    movej([-0.15389776009552292, -1.5022493877415375, 1.8195237761691674, -0.3975471598205784, 1.2016362887550547, 3.4401860731429545],a = 0.15,v = 0.15,r = 0.02)
    movej([-0.1669537917472783, -1.4536572069539453, 1.8857524366442222, -0.539611089529406, 1.189877400280929, 3.542199818255591],a = 0.15,v = 0.15,r = 0.02)
    movej([-0.18124999795275443, -1.393920267879314, 1.9457037510704822, -0.6867665295809093, 1.1772055835511532, 3.645004157272713],a = 0.15,v = 0.15,r = 0.02)
    movej([-0.19711815602529903, -1.322220905080167, 1.9983602907953895, -0.8388095051833417, 1.1633355816121154, 3.7483141278458665],a = 0.15,v = 0.15,r = 0.02)
    movej([-0.21479586066521983, -1.2379092124098783, 2.042350790638751, -0.9950035841088107, 1.1480873144346562, 3.8518293354317032],a = 0.15,v = 0.15,r = 0.02)
    movej([-0.23441455330909333, -1.1407745855850333, 2.075995401701938, -1.1538352663533056, 1.1313981750973126, 3.9552228914451852],a = 0.15,v = 0.15,r = 0.02)
    movej([-0.2460827668638057, -1.0489773902870958, 2.094229950139665, -1.2780509791081682, 1.121436916226342, 4.007049125063113],a = 0.15,v = 0.15,r = 0.02)
    movej([-0.2514848326938921, -0.9700384715962667, 2.1040811738814034, -1.3674469678639543, 1.116180950109146, 4.008436276257003],a = 0.15,v = 0.15,r = 0.02)
    movej([-0.26102241226682343, -0.888471206643068, 2.110992891316612, -1.4570193564172653, 1.106903187525058, 4.010902876405644],a = 0.15,v = 0.15,r = 0.02)
    movej([-0.2744782399763803, -0.804098325056176, 2.1141782973144183, -1.5461728561791706, 1.0938181129709021, 4.014422103837232],a = 0.15,v = 0.15,r = 0.02)
    movej([-0.29152477103638375, -0.7169311272044356, 2.112651823136164, -1.6339254261359453, 1.0772486529722463, 4.018949516935269],a = 0.15,v = 0.15,r = 0.02)
    movej([-0.31174816296242813, -0.6272637093744922, 2.105380814416347, -1.7189640346383044, 1.0576025724723583, 4.024426655099205],a = 0.15,v = 0.15,r = 0.02)
    movej([-0.33455510435590496, -0.5356874439973787, 2.0913141632930294, -1.7996396859631911, 1.0354624800577379, 4.03075104189589],a = 0.15,v = 0.15,r = 0.02)
    movej([-0.3592032498591098, -0.4430615720564788, 2.069543959905189, -1.8741510041827163, 1.011555317781686, 4.037775578206595],a = 0.15,v = 0.15)
    halt
    end
  end
end
