def movement():
  while(True):
    movej([-0.10515067172589454, -1.5877695783553172, 1.5875159190896593, 0.00025365926565790176, 1.2481197552404897, 3.141592653589793],a = 0.15,v = 0.15,r = 0.02)
    movej([-0.049288597870430495, -1.5395270777861985, 1.6083323942068226, -0.06817241724451151, 1.5227891090931103, 3.143271563629988],a = 0.15,v = 0.15,r = 0.02)
    movej([-0.09951804447696788, -1.504241720783698, 1.6430572350212476, -0.14486521496302718, 1.25570970468915, 3.2134394490004823],a = 0.15,v = 0.15,r = 0.02)
    movej([-0.09742521715901864, -1.4587516328878003, 1.6652916815768872, -0.21560084180777572, 1.2587851082177712, 3.2493249624047027],a = 0.15,v = 0.15,r = 0.02)
    movej([-0.09593106342245972, -1.4121961341289495, 1.6856102176387662, -0.2854779054041767, 1.261264402054167, 3.2851866204204074],a = 0.15,v = 0.15,r = 0.02)
    movej([-0.09509110422356426, -1.3653750204769644, 1.7052516833573783, -0.35493648517745413, 1.263092077378941, 3.3210263980676875],a = 0.15,v = 0.15,r = 0.02)
    movej([-0.09494450666405774, -1.3188357776018726, 1.7253000887580239, -0.42451414281997746, 1.2642290197751134, 3.356846567913532],a = 0.15,v = 0.15,r = 0.02)
    movej([-0.09551201887160032, -1.2728125240146309, 1.7465520268331813, -0.4947742565298441, 1.264654574061021, 3.3926492945569593],a = 0.15,v = 0.15,r = 0.02)
    movej([-0.09680902366534916, -1.227282791466635, 1.7695448392681659, -0.5662773874777729, 1.2643534917896102, 3.4284365947281747],a = 0.15,v = 0.15,r = 0.02)
    movej([-0.09727492525540593, -1.1823792239419273, 1.7934001607986207, -0.6365214120553011, 1.2643865263995662, 3.4463127189429423],a = 0.15,v = 0.15,r = 0.02)
    movej([-0.09694530695736714, -1.1379324673144993, 1.8182142494611728, -0.7057796000417449, 1.2647160375420918, 3.446303904765585],a = 0.15,v = 0.15,r = 0.02)
    movej([-0.09734856428292948, -1.0928926716449183, 1.844601818319628, -0.7772102159876324, 1.2643129113143856, 3.4463146883427407],a = 0.15,v = 0.15,r = 0.02)
    movej([-0.09842409875578739, -1.0464265807259476, 1.8717531313209586, -0.8508363161586603, 1.2632377266586226, 3.44634346287387],a = 0.15,v = 0.15,r = 0.02)
    movej([-0.1000939301829753, -0.9976358710245661, 1.8985271030755309, -0.9264145693239616, 1.261568438817422, 3.446388176039525],a = 0.15,v = 0.15,r = 0.02)
    movej([-0.10226509297874475, -0.9456910728871604, 1.9235723495669763, -1.0034223884052302, 1.2593979836759894, 3.4464463847865296],a = 0.15,v = 0.15,r = 0.02)
    movej([-0.10482449122505577, -0.8899392234706602, 1.9453924687330768, -1.081015496381231, 1.256839420894408, 3.4465151066758994],a = 0.15,v = 0.15,r = 0.02)
    movej([-0.10763597929302815, -0.8300159706643573, 1.9624364694927114, -1.158006205101318, 1.2540288521829774, 3.446590729138805],a = 0.15,v = 0.15)
    halt
    end
  end
end
